X: 1033
T: Winder Slide
C:Joe LaRose
B: jims roots
M:C|
L:1/8
R: reel
Q: 1/4=100
K:D
V:1 
%C: Joe LaRose (ca.1980)
%N: Also attributed to Rayna Gellert, who recorded it.
de | "D"fefe {e}f3e | f2 a2- a2de | fded ec3 | "G"d4- d3A |
BdB2 A3D | "A"{E}F2 E4 FE | DA,B,A, A,B,3 | [1"D"D4- D3e:|[2 "D"D4- D3A ||
"G"BdB2 A3D | "A"{E}F2 E4 FE | "D"DDFF DF3 | {F}A3B A2AB |
"G"BdB2 A3D | "A"{E}F2 E4 (3EFE | "D"DA,B,A, A,B,3 | D3e fde2 | d4- d3e |]
% abcbook-tune_id 6298c297b6edbf1b6338aebd


% abcbook-boost 0
% abcbook-tablature 
% abcbook-transpose 
% abcbook-lastupdated 1654178457035
% abcbook-soundfonts 
% abcbook-repeats 1


